src/assets/sidebar2.svg

<svg width="19" height="19" viewBox="0 0 19 19" fill="none" xmlns="http://www.w3.org/2000/svg">
<path d="M12.6947 0.992106C13.2187 0.467937 13.9225 0.1627 14.6634 0.138302C15.4042 0.113904 16.1266 0.372171 16.684 0.860724L16.8241 0.992106L17.5122 1.68016C18.0361 2.20415 18.3412 2.90774 18.3656 3.6483C18.39 4.38887 18.1319 5.11101 17.6436 5.66834L17.5122 5.80848L6.6002 16.721C6.44592 16.8753 6.25901 16.993 6.05324 17.0655L5.89557 17.1113L1.56074 18.1117C1.40888 18.1468 1.25082 18.1449 1.09982 18.1063C0.948828 18.0676 0.809312 17.9933 0.692988 17.8896C0.576663 17.7859 0.486927 17.6557 0.431314 17.5101C0.375701 17.3645 0.355834 17.2077 0.373382 17.0529L0.392847 16.9429L1.39237 12.6073C1.44175 12.3946 1.53819 12.1957 1.67461 12.0253L1.78264 11.9037L12.6947 0.992106ZM12.0066 4.43238L3.25711 13.1815L2.63812 15.8656L5.32233 15.2456L14.0718 6.49654L12.0066 4.43238ZM15.448 2.36821C15.2804 2.20065 15.0574 2.09999 14.8209 2.08512C14.5844 2.07025 14.3505 2.14219 14.1633 2.28744L14.0718 2.36821L13.3827 3.05627L15.448 5.12043L16.136 4.43238C16.3036 4.2648 16.4043 4.04184 16.4192 3.80532C16.434 3.56881 16.3621 3.335 16.2168 3.14775L16.136 3.05627L15.448 2.36821Z" fill="black"/>
</svg>

<svg xmlns="http://www.w3.org/2000/svg" width="19" height="19" fill="none"><path fill="#000" d="M12.695.992a2.92 2.92 0 0 1 3.989-.131l.14.131.688.688a2.92 2.92 0 0 1 .132 3.988l-.132.14L6.6 16.721a1.5 1.5 0 0 1-.547.345l-.157.045-4.335 1a.975.975 0 0 1-1.188-1.058l.02-.11 1-4.336a1.5 1.5 0 0 1 .282-.582l.108-.121zm-.688 3.44-8.75 8.75-.619 2.684 2.684-.62 8.75-8.75zm3.441-2.064a.973.973 0 0 0-1.285-.08l-.091.08-.69.688 2.066 2.064.688-.688a.973.973 0 0 0 .08-1.284l-.08-.092z"/></svg>
